;FLAVOR:Marlin
;TIME:3928
;Filament used: 5.62041m
;Layer height: 0.2
;MINX:-114.949
;MINY:-24.194
;MINZ:0.3
;MAXX:114.95
;MAXY:24.179
;MAXZ:149.5
;TARGET_MACHINE.NAME:Unknown
;Exported with Cura-DuetRRF v1.2.11 plugin by Thomas Kriechbaumer
;Generated with Cura_SteamEngine 5.8.0
M104 S205
M105
M109 S205
M82 ;absolute extrusion mode
G28 ; home


;Prime the extruder
G92 E0
G1 F200 E3
G92 E0
M83 ;relative extrusion mode
G1 F3600 E-1
;LAYER_COUNT:748
;LAYER:0
;note -- min layer time used
M106 S255
;MESH:propeller_unwrapped.stl
G0 F9600 X-.169 Y0.306 Z0.3
;TYPE:WALL-OUTER
G1 F3600 E1
G1 F609.8 X-.23 Y0.248 E0.00517
G1 X-.31 Y-0.071 E0.02018
G1 X0.031 Y-.331 E0.02631
G1 X0.273 Y-.189 E0.01722
G1 X0.263 Y0.166 E0.02179
G1 X-.169 Y0.306 E0.02787
G0 F9600 X0.263 Y0.166
G0 X0.272 Y-.18
G1 F3600 E-1
;MESH:NONMESH
G0 F600 X0.272 Y-.18 Z0.5
G0 F9600 X-0.064 Y0.75
;TIME_ELAPSED:2.144853
;LAYER:1
;note -- min layer time used
;TYPE:WALL-INNER
;MESH:propeller_unwrapped.stl
G1 F3600 E1
G1 F600 X0.172 Y0.727 E0.00986
G1 X0.514 Y0.549 E0.01603
G1 X0.723 Y0.17 E0.01799
G1 X0.748 Y-0.046 E0.00904
G1 X0.702 Y-.275 E0.00971
G1 X0.589 Y-.466 E0.00923
G1 X0.356 Y-.664 E0.01271
G1 X-0.049 Y-.744 E0.01716
G1 X-.39 Y-.636 E0.01487
G1 X-.542 Y-.52 E0.00795
G1 X-.707 Y-.259 E0.01284
G1 X-.723 Y0.141 E0.01664
G1 X-.533 Y0.516 E0.01748
G1 X-.265 Y0.702 E0.01356
G1 X-0.064 Y0.75 E0.00859
G0 F12000 X-0.098 Y1.255
;TYPE:WALL-OUTER
G1 F600 X0.316 Y1.215 E0.01729
G1 X0.813 Y0.957 E0.02328
G1 X0.911 Y0.865 E0.00559
G1 X1.209 Y0.326 E0.02561
G1 X1.254 Y-0.068 E0.01649
G1 X1.175 Y-.457 E0.0165
G1 X0.977 Y-.792 E0.01618
G1 X0.617 Y-1.098 E0.01964
G1 X0.373 Y-1.195 E0.01092
G1 X-0.096 Y-1.253 E0.01965
G1 X-.623 Y-1.086 E0.02298
G1 X-.916 Y-.864 E0.01528
G1 X-1.203 Y-.369 E0.02379
G1 X-1.227 Y0.252 E0.02584
G1 X-.921 Y0.854 E0.02808
G1 X-.472 Y1.167 E0.02276
G1 X-0.098 Y1.255 E0.01597
G0 F12000 X0.316 Y1.215
G0 X0.656 Y1.039
G0 X0.265 Y0.288
G0 X0.255 Y0.038
;TYPE:SKIN
G1 F613.5 X0.166 Y0.195 E0.00734
G1 X0.052 Y0.257 E0.00528
G1 X-0.015 Y0.254 E0.00273
G1 X-0.086 Y0.25 E0.00289
G1 X-.165 Y0.195 E0.00391
G1 X-.246 Y0.033 E0.00736
G1 X-.242 Y-0.097 E0.00529
G1 X-.188 Y-.163 E0.00347
G1 X-.14 Y-.222 E0.00309
G1 X-0.09 Y-.237 E0.00212
G1 X-0.005 Y-.264 E0.00363
G1 X0.126 Y-.243 E0.00539
G1 X0.248 Y-.114 E0.00722
G1 X0.255 Y0.038 E0.00619
G0 F12000 X0.005 Y0.014
G1 F3600 E-1
;MESH:NONMESH
G0 F600 X0.005 Y0.014 Z0.7
G0 F12000 X-0.071 Y1.451
;TIME_ELAPSED:3.798286
;LAYER:2
;note -- min layer time used
;TYPE:WALL-INNER
;MESH:propeller_unwrapped.stl
G1 F3600 E1
G1 F604.5 X0.495 Y1.37 E0.02377
G1 X0.82 Y1.21 E0.01506
G1 X1.154 Y0.889 E0.01926
G1 X1.353 Y0.544 E0.01656
G1 X1.456 Y0.091 E0.01931
G1 X1.424 Y-.338 E0.01789
G1 X1.274 Y-.716 E0.01691
G1 X1.038 Y-1.021 E0.01603
G1 X0.591 Y-1.33 E0.02259
G1 X0.331 Y-1.421 E0.01145
G1 X-.158 Y-1.449 E0.02036
G1 X-.513 Y-1.364 E0.01518
G1 X-.843 Y-1.19 E0.01551
G1 X-1.113 Y-.941 E0.01527
G1 X-1.294 Y-.678 E0.01327
G1 X-1.404 Y-.386 E0.01297
G1 X-1.447 Y0.026 E0.01722
G1 X-1.361 Y0.513 E0.02056
G1 X-1.207 Y0.811 E0.01395
G1 X-.932 Y1.111 E0.01692
G1 X-.524 Y1.356 E0.01979
G1 X-0.071 Y1.451 E0.01924
G0 F12000 X-0.087 Y1.958
;TYPE:WALL-OUTER
G1 F604.5 X0.645 Y1.854 E0.03074
G1 X1.11 Y1.624 E0.02157
G1 X1.552 Y1.2 E0.02546
G1 X1.824 Y0.728 E0.02265
G1 X1.96 Y0.129 E0.02554
G1 X1.917 Y-.451 E0.02418
G1 X1.712 Y-.966 E0.02305
G1 X1.386 Y-1.388 E0.02217
G1 X0.821 Y-1.779 E0.02857
G1 X0.454 Y-1.908 E0.01617
G1 X-.215 Y-1.949 E0.02787
G1 X-.691 Y-1.836 E0.02034
G1 X-1.134 Y-1.602 E0.02083
G1 X-1.493 Y-1.271 E0.0203
G1 X-1.74 Y-.911 E0.01815
G1 X-1.894 Y-.502 E0.01817
G1 X-1.951 Y0.043 E0.02278
G1 X-1.84 Y0.675 E0.02668
G1 X-1.621 Y1.099 E0.01984
G1 X-1.252 Y1.503 E0.02275
G1 X-.708 Y1.828 E0.02635
G1 X-0.087 Y1.958 E0.02638
G0 F12000 X0.645 Y1.854
G0 X0.699 Y1.827
G0 X0.397 Y1.033
G0 X-0.049 Y0.966
;TYPE:SKIN
;BRIDGE
M107
G1 F604.5 X-.348 Y0.907 E0.01267
G1 X-.627 Y0.736 E0.0136
G1 X-.812 Y0.536 E0.01133
G1 X-.904 Y0.356 E0.0084
G1 X-.963 Y0.011 E0.01455
G1 X-.934 Y-.278 E0.01208
G1 X-.753 Y-.623 E0.0162
G1 X-.562 Y-.801 E0.01085
G1 X-.343 Y-.916 E0.01028
G1 X-.113 Y-.972 E0.00984
G1 X0.222 Y-.952 E0.01395
G1 X0.373 Y-.899 E0.00665
G1 X0.706 Y-.668 E0.01685
G1 X0.856 Y-.474 E0.0102
G1 X0.953 Y-.23 E0.01092
G1 X0.975 Y0.049 E0.01164
G1 X0.9 Y0.373 E0.01383
G1 X0.779 Y0.589 E0.01029
G1 X0.543 Y0.816 E0.01361
G1 X0.35 Y0.91 E0.00893
G1 X-0.049 Y0.966 E0.01675
G0 F12000 X-.695 Y-.155
G1 F604.5 X-.626 Y0.327 E0.02024
G0 F12000 X0.099 Y0.693
G1 F604.5 X-.102 Y-.716 E0.05917
G0 F12000 X0.628 Y-.312
G1 F604.5 X0.695 Y0.153 E0.01953
G0 F12000 X0.679 Y0.149
G1 F3600 E-1
;MESH:NONMESH
G0 F600 X0.679 Y0.149 Z0.9
G0 F12000 X-0.064 Y1.1
G0 X-.135 Y2.136
;TIME_ELAPSED:7.111876
;LAYER:3
;note -- min layer time used
M106 S255
;TYPE:WALL-INNER
;MESH:propeller_unwrapped.stl
G1 F3600 E1
G1 F906.6 X0.541 Y2.065 E0.02826
G1 X0.845 Y1.971 E0.01323
G1 X1.117 Y1.83 E0.01274
G1 X1.402 Y1.618 E0.01477
G1 X1.682 Y1.328 E0.01676
G1 X1.94 Y0.902 E0.02071
G1 X2.12 Y0.338 E0.02461
G1 X2.132 Y-.17 E0.02113
G1 X2.057 Y-.59 E0.01774
G1 X1.917 Y-.957 E0.01633
G1 X1.618 Y-1.404 E0.02236
G1 X1.299 Y-1.697 E0.01801
G1 X0.876 Y-1.954 E0.02058
G1 X0.587 Y-2.056 E0.01274
G1 X0.111 Y-2.142 E0.02011
G1 X-.336 Y-2.115 E0.01862
G1 X-.693 Y-2.029 E0.01527
G1 X-1.127 Y-1.824 E0.01996
G1 X-1.482 Y-1.552 E0.01859
G1 X-1.749 Y-1.241 E0.01704
G1 X-1.975 Y-.833 E0.01939
G1 X-2.121 Y-.289 E0.02342
G1 X-2.135 Y0.16 E0.01868
G1 X-2.087 Y0.484 E0.01362
G1 X-1.957 Y0.875 E0.01713
G1 X-1.72 Y1.276 E0.01937
G1 X-1.43 Y1.596 E0.01795
G1 X-1.132 Y1.816 E0.0154
G1 X-.776 Y1.998 E0.01662
G1 X-.135 Y2.136 E0.02726
G0 F12000 X-.149 Y2.64
;TYPE:WALL-OUTER
G1 F906.6 X0.641 Y2.557 E0.03303
G1 X1.036 Y2.435 E0.01719
G1 X1.383 Y2.255 E0.01625
G1 X1.734 Y1.995 E0.01816
G1 X2.08 Y1.634 E0.02079
G1 X2.398 Y1.111 E0.02545
G1 X2.618 Y0.422 E0.03007
G1 X2.633 Y-.208 E0.0262
G1 X2.541 Y-.724 E0.02179
G1 X2.364 Y-1.188 E0.02065
G1 X2 Y-1.732 E0.02721
G1 X1.601 Y-2.099 E0.02254
G1 X1.092 Y-2.408 E0.02476
G1 X0.715 Y-2.541 E0.01662
G1 X0.141 Y-2.644 E0.02425
G1 X-.41 Y-2.611 E0.02295
G1 X-.86 Y-2.503 E0.01924
G1 X-1.389 Y-2.253 E0.02433
G1 X-1.827 Y-1.917 E0.02295
G1 X-2.161 Y-1.528 E0.02132
G1 X-2.442 Y-1.021 E0.0241
G1 X-2.619 Y-.363 E0.02833
G1 X-2.637 Y0.189 E0.02296
G1 X-2.575 Y0.601 E0.01732
G1 X-2.415 Y1.083 E0.02111
G1 X-2.125 Y1.574 E0.02371
G1 X-1.767 Y1.969 E0.02216
G1 X-1.396 Y2.242 E0.01915
G1 X-.965 Y2.463 E0.02014
G1 X-.651 Y2.559 E0.01365
G1 X-.149 Y2.64 E0.02114
G0 F12000 X0.641 Y2.557
G0 X0.646 Y2.556
G0 X0.46 Y1.728
G0 X0.074 Y0.816
;TYPE:SKIN
G1 F630.5 X0.257 Y0.784 E0.01111
G1 F627.8 X0.558 Y0.615 E0.02072
G1 F629.6 X0.818 Y0.134 E0.03273
G1 X0.793 Y-.257 E0.02346
G1 F631.3 X0.637 Y-.536 E0.01908
G1 X0.356 Y-.754 E0.02123
G1 F629.6 X0.011 Y-.825 E0.02109
G1 F626.1 X-.447 Y-.696 E0.02864
G1 F627.8 X-.764 Y-.321 E0.02948
G1 F625.3 X-.812 Y0.093 E0.02512
G1 F621 X-.774 Y0.246 E0.00957
G1 F622.7 X-.567 Y0.598 E0.02472
G1 F628.7 X-.284 Y0.78 E0.02017
G1 F634.9 X0.074 Y0.816 E0.02136
G0 F12000 X-.109 Y1.542
G1 F629.6 X-.553 Y1.45 E0.02715
G1 F628.7 X-1.046 Y1.146 E0.03472
G1 F623.5 X-1.239 Y0.927 E0.01765
G1 F618.4 X-1.411 Y0.627 E0.02108
G1 X-1.512 Y0.339 E0.0186
G1 F621 X-1.532 Y-.202 E0.03286
G1 F624.4 X-1.428 Y-.607 E0.02524
G1 X-1.254 Y-.906 E0.02088
G1 F621 X-1.075 Y-1.118 E0.01684
G1 F624.4 X-.819 Y-1.317 E0.01957
G1 F622.7 X-.49 Y-1.468 E0.02191
G1 F621.8 X0.068 Y-1.551 E0.0342
G1 F629.6 X0.634 Y-1.417 E0.03482
G1 F630.5 X0.946 Y-1.226 E0.02187
G1 F629.6 X1.172 Y-1.017 E0.01843
G1 F630.5 X1.394 Y-.686 E0.02383
G1 F631.3 X1.488 Y-.436 E0.01595
G1 F627.8 X1.541 Y-.123 E0.01906
G1 F627 X1.536 Y0.244 E0.02207
G1 F624.4 X1.402 Y0.646 E0.02558
G1 X1.207 Y0.97 E0.02283
G1 F628.7 X1.025 Y1.164 E0.01595
G1 F626.1 X0.603 Y1.429 E0.03
G1 F625.3 X0.428 Y1.485 E0.01108
G1 F627.8 X-.109 Y1.542 E0.03242
G0 F12000 X-.124 Y1.379
G1 F3600 E-1
;MESH:NONMESH
G0 F600 X-.124 Y1.379 Z1.1
G0 F12000 X0.993 Y-.106
;TIME_ELAPSED:10.801733
;LAYER:4
;note -- min layer time used
;TYPE:FILL
;MESH:propeller_unwrapped.stl
G1 F3600 E1
G1 F1415.8 X0.099 Y-1 E0.05256
G1 X0.402 Y-.921 E0.01302
G1 X0.721 Y-.699 E0.01616
G1 X0.884 Y-.487 E0.01112
G1 X0.981 Y-.241 E0.01099
G1 X1.006 Y0.059 E0.01252
G1 X0.933 Y0.375 E0.01348
G1 X0.81 Y0.587 E0.01019
G1 X-.399 Y0.911 E0.05204
G1 X-.647 Y0.762 E0.01203
G1 X-.834 Y0.555 E0.0116
G1 X-.913 Y0.405 E0.00705
G1 X-.585 Y-.819 E0.05268
G1 X-.354 Y-.941 E0.01086
G1 X-.105 Y-1.001 E0.01065
G1 X0.016 Y-1.03
G1 F3600 E-1
G0 F12000 X-0.069 Y2.459
G0 X-0.068 Y2.806
;TYPE:WALL-INNER
G1 F3600 E1
G1 F1415.8 X0.631 Y2.745 E0.02917
G1 X1.242 Y2.521 E0.02706
G1 X1.692 Y2.244 E0.02197
G1 X1.917 Y2.051 E0.01232
G1 X2.314 Y1.605 E0.02482
G1 X2.57 Y1.137 E0.02218
G1 X2.725 Y0.678 E0.02014
G1 X2.821 Y0.093 E0.02465
G1 X2.78 Y-.411 E0.02102
G1 X2.705 Y-.764 E0.015
G1 X2.567 Y-1.143 E0.01677
G1 X2.336 Y-1.557 E0.01971
G1 X2.052 Y-1.923 E0.01926
G1 X1.672 Y-2.265 E0.02125
G1 X1.155 Y-2.563 E0.02481
G1 X0.465 Y-2.772 E0.02997
G1 X-0.088 Y-2.807 E0.02304
G1 X-.406 Y-2.781 E0.01327
G1 X-.841 Y-2.679 E0.01858
G1 X-1.588 Y-2.319 E0.03448
G1 X-1.882 Y-2.085 E0.01562
G1 X-2.288 Y-1.631 E0.02532
G1 X-2.562 Y-1.151 E0.02298
G1 X-2.725 Y-.686 E0.02049
G1 X-2.811 Y-.119 E0.02384
G1 X-2.731 Y0.654 E0.03231
G1 X-2.508 Y1.296 E0.02826
G1 X-2.146 Y1.815 E0.02631
G1 X-1.946 Y2.03 E0.01221
G1 X-1.518 Y2.368 E0.02267
G1 X-1.025 Y2.616 E0.02294
G1 X-.567 Y2.753 E0.01988
G1 X-0.068 Y2.806 E0.02086
G0 F12000 X-0.073 Y3.308
;TYPE:WALL-OUTER
G1 F1415.8 X0.741 Y3.237 E0.03397
G1 X1.462 Y2.973 E0.03192
G1 X1.988 Y2.649 E0.02568
G1 X2.268 Y2.409 E0.01533
G1 X2.726 Y1.895 E0.02862
G1 X3.03 Y1.339 E0.02635
G1 X3.212 Y0.799 E0.02369
G1 X3.324 Y0.113 E0.0289
G1 X3.276 Y-.483 E0.02486
G1 X3.187 Y-.902 E0.01781
G1 X3.023 Y-1.351 E0.01987
G1 X2.754 Y-1.833 E0.02295
G1 X2.42 Y-2.265 E0.0227
G1 X1.968 Y-2.672 E0.02529
G1 X1.355 Y-3.025 E0.02941
G1 X0.555 Y-3.268 E0.03476
G1 X-0.093 Y-3.309 E0.02699
G1 X-.484 Y-3.276 E0.01631
G1 X-.992 Y-3.157 E0.02169
G1 X-1.369 Y-3.005 E0.0169
G1 X-1.865 Y-2.738 E0.02342
G1 X-2.227 Y-2.449 E0.01926
G1 X-2.696 Y-1.925 E0.02924
G1 X-3.019 Y-1.359 E0.02709
G1 X-3.212 Y-.807 E0.02431
G1 X-3.313 Y-.146 E0.0278
G1 X-3.29 Y0.356 E0.02089
G1 X-3.217 Y0.78 E0.01789
G1 X-3.021 Y1.343 E0.02478
G1 X-2.864 Y1.66 E0.01471
G1 X-2.536 Y2.13 E0.02383
G1 X-2.286 Y2.399 E0.01527
G1 X-1.788 Y2.792 E0.02637
G1 X-1.211 Y3.082 E0.02685
G1 X-.666 Y3.245 E0.02365
G1 X-0.073 Y3.308 E0.02479
G0 F12000 X0.724 Y3.239
G0 X0.563 Y2.403
G0 X0.472 Y1.448
;TYPE:SKIN
G1 F1007 X0.907 Y1.234 E0.02834
G1 F1005.6 X1.231 Y0.901 E0.0272
G1 F1007 X1.408 Y0.6 E0.02041
G1 F1008.4 X1.531 Y0.073 E0.03159
G1 F1011.3 X1.479 Y-.402 E0.02781
G1 F1014.2 X1.308 Y-.793 E0.02477
G1 F1012.7 X1.105 Y-1.059 E0.01945
G1 F1011.3 X0.635 Y-1.392 E0.03353
G1 F1014.2 X0.219 Y-1.514 E0.02516
G1 F1020 X-.182 Y-1.516 E0.02314
G1 F1021.5 X-.5 Y-1.443 E0.0188
G1 F1014.2 X-.886 Y-1.25 E0.02505
G1 F1017.1 X-1.199 Y-.95 E0.02509
G1 X-1.37 Y-.679 E0.01854
G1 F1011.3 X-1.483 Y-.368 E0.01926
G1 F1008.4 X-1.522 Y-0.022 E0.02032
G1 F1017.1 X-1.416 Y0.556 E0.03401
G1 F1026 X-1.254 Y0.864 E0.01997
G1 F1014.2 X-1.018 Y1.136 E0.0209
G1 F1008.4 X-.577 Y1.414 E0.03043
G1 F1009.9 X-0.063 Y1.522 E0.03061
G1 F1008.4 X0.472 Y1.448 E0.03153
G0 F12000 X-0.061 Y2.225
G1 F1004.1 X-.45 Y2.182 E0.02294
G1 X-.809 Y2.077 E0.02193
G1 X-1.204 Y1.874 E0.02603
G1 F1001.3 X-1.539 Y1.614 E0.02493
G1 F1007 X-1.928 Y1.113 E0.03708
G1 F1004.1 X-2.164 Y0.511 E0.0379
G1 F999.9 X-2.227 Y-.103 E0.03634
G1 F1005.6 X-2.166 Y-.535 E0.02554
G1 F1009.9 X-2.032 Y-.917 E0.0236
G1 F1011.3 X-1.822 Y-1.283 E0.02456
G1 F1008.4 X-1.481 Y-1.667 E0.02998
G1 X-1.273 Y-1.833 E0.01553
G1 F1011.3 X-.664 Y-2.127 E0.03936
G1 X-0.069 Y-2.228 E0.03513
G1 F1012.7 X0.357 Y-2.201 E0.02481
G1 F1014.2 X0.932 Y-2.025 E0.0349
G1 F1002.7 X1.326 Y-1.793 E0.02684
G1 F999.9 X1.625 Y-1.533 E0.02333
G1 F1008.4 X1.846 Y-1.243 E0.02128
G1 X2.04 Y-.897 E0.02315
G1 F1009.9 X2.147 Y-.608 E0.01796
G1 F1011.3 X2.237 Y0.075 E0.0401
G1 F1007 X2.161 Y0.535 E0.02725
G1 F1008.4 X2.037 Y0.907 E0.02289
G1 F1005.6 X1.837 Y1.27 E0.02426
G1 F999.9 X1.43 Y1.721 E0.03576
G1 F1002.7 X0.997 Y1.994 E0.03005
G1 F999.9 X0.498 Y2.172 E0.03119
G1 F1001.3 X-0.061 Y2.225 E0.03301
G0 F12000 X-0.075 Y2.056
G1 F3600 E-1
;MESH:NONMESH
G0 F600 X-0.075 Y2.056 Z1.3
G0 F12000 X1.59 Y0.525
;TIME_ELAPSED:14.545737
;LAYER:5
;note -- min layer time used
;TYPE:FILL
;MESH:propeller_unwrapped.stl
G1 F3600 E1
G1 F1809.3 X-1.133 Y1.255 E0.11721
G1 X-1.252 Y1.123 E0.00739
G1 X-.52 Y-1.61 E0.11763
G1 X-.268 Y-1.673 E0.0108
G1 X0.083 Y-1.691 E0.01461
G1 X-.351 Y-1.651 E0.01812
G1 X1.649 Y0.349 E0.11759
G1 X1.59 Y0.525 E0.00772
G1 F3600 E-1
G0 F12000 X0.069 Y3.115
G0 X0.07 Y3.465
;TYPE:WALL-INNER
G1 F3600 E1
G1 F1809.3 X0.602 Y3.411 E0.02223
G1 X1.12 Y3.274 E0.02228
G1 X1.675 Y3.025 E0.02529
G1 X2.278 Y2.602 E0.03062
G1 X2.567 Y2.326 E0.01661
G1 X2.881 Y1.916 E0.02147
G1 X3.145 Y1.455 E0.02209
G1 X3.335 Y0.931 E0.02317
G1 X3.428 Y0.478 E0.01923
G1 X3.464 Y0.042 E0.01819
G1 X3.434 Y-.471 E0.02136
G1 X3.337 Y-.93 E0.0195
G1 X3.163 Y-1.415 E0.02142
G1 X2.865 Y-1.944 E0.02524
G1 X2.559 Y-2.34 E0.02081
G1 X2.138 Y-2.722 E0.02363
G1 X1.456 Y-3.158 E0.03365
G1 X0.671 Y-3.411 E0.03429
G1 X0.051 Y-3.464 E0.02587
G1 X-.379 Y-3.441 E0.0179
G1 X-1.042 Y-3.319 E0.02803
G1 X-1.604 Y-3.067 E0.02561
G1 X-2.024 Y-2.809 E0.02049
G1 X-2.402 Y-2.493 E0.02048
G1 X-2.772 Y-2.073 E0.02327
G1 X-3.058 Y-1.632 E0.02185
G1 X-3.291 Y-1.077 E0.02503
G1 X-3.439 Y-.429 E0.02763
G1 X-3.439 Y0.417 E0.03517
G1 X-3.264 Y1.16 E0.03174
G1 X-2.886 Y1.915 E0.0351
G1 X-2.57 Y2.323 E0.02146
G1 X-2.204 Y2.669 E0.02094
G1 X-1.703 Y3.02 E0.02543
G1 X-1.26 Y3.226 E0.02031
G1 X-.767 Y3.38 E0.02147
G1 X-.327 Y3.452 E0.01854
G1 X0.07 Y3.465 E0.01651
G0 F12000 X0.087 Y3.965
;TYPE:WALL-OUTER
G1 F1809.3 X0.691 Y3.905 E0.02523
G1 X1.288 Y3.747 E0.02567
G1 X1.923 Y3.461 E0.02895
G1 X2.596 Y2.99 E0.03415
G1 X2.941 Y2.66 E0.01985
G1 X3.299 Y2.193 E0.02446
G1 X3.6 Y1.666 E0.02523
G1 X3.818 Y1.067 E0.0265
G1 X3.924 Y0.548 E0.02202
G1 X3.965 Y0.048 E0.02086
G1 X3.931 Y-.538 E0.0244
G1 X3.819 Y-1.067 E0.02248
G1 X3.619 Y-1.623 E0.02457
G1 X3.283 Y-2.221 E0.02852
G1 X2.927 Y-2.681 E0.02418
G1 X2.443 Y-3.12 E0.02717
G1 X1.841 Y-3.505 E0.02971
G1 X1.506 Y-3.667 E0.01547
G1 X0.77 Y-3.905 E0.03216
G1 X0.059 Y-3.965 E0.02967
G1 X-.438 Y-3.939 E0.02069
G1 X-.992 Y-3.836 E0.02343
G1 X-1.367 Y-3.721 E0.01631
G1 X-1.838 Y-3.51 E0.02146
G1 X-2.317 Y-3.216 E0.02337
G1 X-2.752 Y-2.852 E0.02358
G1 X-3.172 Y-2.376 E0.02639
G1 X-3.502 Y-1.866 E0.02525
G1 X-3.769 Y-1.231 E0.02864
G1 X-3.935 Y-.5 E0.03117
G1 X-3.965 Y0.011 E0.02128
G1 X-3.935 Y0.491 E0.02
G1 X-3.741 Y1.314 E0.03515
G1 X-3.575 Y1.713 E0.01797
G1 X-3.303 Y2.193 E0.02294
G1 X-2.942 Y2.659 E0.02451
G1 X-2.521 Y3.057 E0.02409
G1 X-1.954 Y3.454 E0.02878
G1 X-1.441 Y3.694 E0.02355
G1 X-.882 Y3.868 E0.02434
G1 X-.375 Y3.95 E0.02135
G1 X0.087 Y3.965 E0.01922
G0 F12000 X0.691 Y3.905
G0 X0.877 Y3.856
G0 X0.662 Y3.037
G0 X-0.096 Y2.197
;TYPE:SKIN
G1 F1318.7 X0.511 Y2.139 E0.03478
G1 X1.091 Y1.919 E0.03538
G1 F1326.5 X1.461 Y1.654 E0.02581
G1 X1.735 Y1.362 E0.02271
G1 X2 Y0.933 E0.0286
G1 F1338.3 X2.18 Y0.339 E0.03489
G1 X2.196 Y-.216 E0.03121
G1 F1318.7 X2.125 Y-.597 E0.02211
G1 X1.992 Y-.947 E0.02136
G1 F1320.7 X1.644 Y-1.477 E0.03611
G1 X1.363 Y-1.733 E0.02165
G1 F1318.7 X0.912 Y-2.017 E0.0304
G1 X0.184 Y-2.212 E0.04299
G1 F1324.5 X-.306 Y-2.184 E0.02787
G1 F1326.5 X-.74 Y-2.081 E0.0253
G1 F1324.5 X-1.14 Y-1.888 E0.02522
G1 F1326.5 X-1.527 Y-1.596 E0.02749
G1 X-1.786 Y-1.3 E0.0223
G1 X-2.042 Y-.857 E0.02901
G1 X-2.189 Y-.283 E0.0336
G1 F1324.5 X-2.198 Y0.174 E0.02596
G1 F1334.3 X-2.148 Y0.503 E0.01876
G1 F1342.2 X-1.998 Y0.929 E0.02531
G1 F1334.3 X-1.766 Y1.321 E0.02568
G1 F1326.5 X-1.445 Y1.67 E0.02689
G1 F1328.4 X-1.188 Y1.86 E0.0181
G1 X-.807 Y2.057 E0.02429
G1 F1324.5 X-0.096 Y2.197 E0.04115
G0 F12000 X0.062 Y2.886
G1 F1299.8 X-.65 Y2.813 E0.04142
G1 F1313 X-1.048 Y2.696 E0.02377
