;FLAVOR:Marlin
;TIME:2678
;Filament used: 4.79773m
;Layer height: 0.3
;MINX:-111.578
;MINY:-23.242
;MINZ:0.3
;MAXX:111.524
;MAXY:23.31
;MAXZ:142.5
;TARGET_MACHINE.NAME:Unknown
;Exported with Cura-DuetRRF v1.2.11 plugin by Thomas Kriechbaumer
;Generated with Cura_SteamEngine 5.8.0
M104 S205
M105
M109 S205
M82 ;absolute extrusion mode
G28 ; home


;Prime the extruder
G92 E0
G1 F200 E3
G92 E0
M83 ;relative extrusion mode
G1 F3600 E-1
;LAYER_COUNT:497
;LAYER:0
;note -- min layer time used
M106 S255
;MESH:propeller_unwrapped (1).stl
G0 F9600 X0.009 Y0.362 Z0.3
;TYPE:WALL-INNER
G1 F3600 E1
G1 F417.3 X0.235 Y0.246 E0.0205
G1 X0.355 Y0.004 E0.0218
G1 X0.322 Y-.188 E0.01572
G1 X0.162 Y-.323 E0.01689
G1 X0.008 Y-.353 E0.01266
G1 X-.254 Y-.249 E0.02275
G1 X-.336 Y-.121 E0.01227
G1 X-.342 Y0.101 E0.01792
G1 X-.158 Y0.321 E0.02314
G1 X0.009 Y0.362 E0.01388
G1 F3600 E-1
G0 F9600 X0.113 Y0.895
;TYPE:WALL-OUTER
G1 F3600 E1
G1 F600 X0.628 Y0.634 E0.03241
G1 X0.899 Y0.082 E0.03451
G1 X0.821 Y-.373 E0.02591
G1 X0.733 Y-.525 E0.00986
G1 X0.396 Y-.811 E0.02481
G1 X-0.043 Y-.896 E0.0251
G1 X-.604 Y-.673 E0.03388
G1 X-.855 Y-.28 E0.02617
G1 X-.868 Y0.232 E0.02875
G1 X-.801 Y0.366 E0.00841
G1 X-.448 Y0.789 E0.03092
G1 X0.113 Y0.895 E0.03204
G0 F9600 X0.628 Y0.634
G0 X0.726 Y0.434
G1 F3600 E-1
;MESH:NONMESH
G0 F600 X0.726 Y0.434 Z0.6
G0 F9600 X0.018 Y0.03
G0 X-0.073 Y1.527
;TIME_ELAPSED:2.947772
;LAYER:1
;note -- min layer time used
;TYPE:WALL-INNER
;MESH:propeller_unwrapped (1).stl
G1 F3600 E1
G1 F689.3 X0.514 Y1.443 E0.03328
G1 X0.867 Y1.268 E0.02211
G1 X1.211 Y0.939 E0.02672
G1 X1.427 Y0.564 E0.02429
G1 X1.531 Y0.1 E0.02669
G1 X1.494 Y-.358 E0.02579
G1 X1.339 Y-.755 E0.02392
G1 X1.089 Y-1.077 E0.02288
G1 X0.63 Y-1.397 E0.0314
G1 X0.35 Y-1.494 E0.01663
G1 X-.162 Y-1.524 E0.02879
G1 X-.542 Y-1.431 E0.02196
G1 X-.886 Y-1.25 E0.02182
G1 X-1.174 Y-.99 E0.02178
G1 X-1.356 Y-.719 E0.01832
G1 X-1.477 Y-.398 E0.01925
G1 X-1.522 Y0.03 E0.02415
G1 X-1.429 Y0.541 E0.02915
G1 X-1.271 Y0.849 E0.01943
G1 X-.98 Y1.171 E0.02436
G1 X-.547 Y1.426 E0.0282
G1 X-0.073 Y1.527 E0.0272
G1 F3600 E-1
G0 F12000 X-0.087 Y1.958
;TYPE:WALL-OUTER
G1 F3600 E1
G1 F689.3 X0.641 Y1.854 E0.04127
G1 X1.114 Y1.62 E0.02962
G1 X1.549 Y1.204 E0.03378
G1 X1.828 Y0.72 E0.03136
G1 X1.959 Y0.13 E0.03392
G1 X1.913 Y-.455 E0.03294
G1 X1.712 Y-.967 E0.03087
G1 X1.385 Y-1.388 E0.02992
G1 X0.825 Y-1.779 E0.03833
G1 X0.454 Y-1.908 E0.02205
G1 X-.211 Y-1.949 E0.03739
G1 X-.694 Y-1.832 E0.02789
G1 X-1.131 Y-1.601 E0.02774
G1 X-1.497 Y-1.27 E0.0277
G1 X-1.736 Y-.916 E0.02397
G1 X-1.894 Y-.497 E0.02513
G1 X-1.951 Y0.046 E0.03064
G1 X-1.836 Y0.678 E0.03605
G1 X-1.624 Y1.092 E0.02611
G1 X-1.252 Y1.504 E0.03116
G1 X-.704 Y1.827 E0.0357
G1 X-0.087 Y1.958 E0.0354
G0 F12000 X0.641 Y1.854
G0 X0.699 Y1.826
G1 F3600 E-1
G0 F12000 X0.402 Y1.058
G0 X-0.053 Y1.091
;TYPE:SKIN
G1 F3600 E1
G1 F689.3 X-.39 Y1.023 E0.0193
G1 X-.707 Y0.836 E0.02066
G1 X-.917 Y0.599 E0.01777
G1 X-1.02 Y0.402 E0.01248
G1 X-1.089 Y0.015 E0.02206
G1 X-1.058 Y-.295 E0.01749
G1 X-.971 Y-.523 E0.0137
G1 X-.848 Y-.703 E0.01224
G1 X-.638 Y-.894 E0.01593
G1 X-.391 Y-1.024 E0.01567
G1 X-.114 Y-1.093 E0.01602
G1 X0.255 Y-1.073 E0.02074
G1 X0.432 Y-1.01 E0.01054
G1 X0.791 Y-.763 E0.02446
G1 X0.962 Y-.54 E0.01577
G1 X1.07 Y-.261 E0.01679
G1 X1.097 Y0.068 E0.01853
G1 X1.023 Y0.405 E0.01937
G1 X0.869 Y0.671 E0.01725
G1 X0.617 Y0.913 E0.01961
G1 X0.38 Y1.03 E0.01483
G1 X-0.053 Y1.091 E0.02454
G1 F3600 E-1
G0 F12000 X0.847 Y-.211
G1 F3600 E1
G1 F689.3 X-.197 Y0.833 E0.08287
G0 F12000 X-.603 Y0.603
G1 F689.3 X0.612 Y-.612 E0.09644
G0 F12000 X0.213 Y-.849
G1 F689.3 X-.829 Y0.192 E0.08267
G1 X-.908 Y0.271
G0 F12000 X-.725 Y0.24
G1 F3600 E-1
;MESH:NONMESH
G0 F600 X-.725 Y0.24 Z0.9
G0 F12000 X-0.081 Y1.633
G0 X-.155 Y2.549
;TIME_ELAPSED:6.394206
;LAYER:2
;TYPE:WALL-INNER
;MESH:propeller_unwrapped (1).stl
G1 F3600 E1
G1 F4800 X0.532 Y2.493 E0.03869
G1 X1.089 Y2.308 E0.03294
G1 X1.401 Y2.132 E0.02011
G1 X1.709 Y1.893 E0.02188
G1 X2.031 Y1.542 E0.02673
G1 X2.331 Y1.04 E0.03282
G1 X2.488 Y0.572 E0.02771
G1 X2.551 Y0.119 E0.02567
G1 X2.532 Y-.339 E0.02573
G1 X2.45 Y-.719 E0.02182
G1 X2.162 Y-1.354 E0.03913
G1 X1.893 Y-1.718 E0.0254
G1 X1.339 Y-2.176 E0.04034
G1 X0.713 Y-2.454 E0.03844
G1 X0.141 Y-2.556 E0.03261
G1 X-.4 Y-2.522 E0.03042
G1 X-.822 Y-2.418 E0.02439
G1 X-1.405 Y-2.13 E0.0365
G1 X-1.738 Y-1.867 E0.02382
G1 X-2.079 Y-1.482 E0.02887
G1 X-2.34 Y-1.019 E0.02983
G1 X-2.54 Y-.367 E0.03828
G1 X-2.541 Y0.251 E0.03469
G1 X-2.481 Y0.603 E0.02004
G1 X-2.267 Y1.174 E0.03423
G1 X-2.028 Y1.553 E0.02515
G1 X-1.741 Y1.868 E0.02392
G1 X-1.358 Y2.162 E0.0271
G1 X-.941 Y2.374 E0.02626
G1 X-.535 Y2.494 E0.02376
G1 X-.155 Y2.549 E0.02155
G1 F3600 E-1
G0 F12000 X-.168 Y2.976
;TYPE:WALL-OUTER
G1 F3600 E1
G1 F840 X0.617 Y2.913 E0.0442
G1 X1.262 Y2.698 E0.03816
G1 X1.637 Y2.487 E0.02415
G1 X1.998 Y2.207 E0.02564
G1 X2.374 Y1.797 E0.03122
G1 X2.719 Y1.219 E0.03778
G1 X2.903 Y0.67 E0.0325
G1 X2.977 Y0.139 E0.03009
G1 X2.955 Y-.392 E0.02983
G1 X2.859 Y-.84 E0.02572
G1 X2.696 Y-1.266 E0.0256
G1 X2.521 Y-1.584 E0.02037
G1 X2.212 Y-2.001 E0.02913
G1 X1.892 Y-2.302 E0.02466
G1 X1.564 Y-2.538 E0.02268
G1 X1.229 Y-2.715 E0.02127
G1 X0.825 Y-2.865 E0.02419
G1 X0.165 Y-2.984 E0.03764
G1 X-.465 Y-2.944 E0.03543
G1 X-.969 Y-2.819 E0.02914
G1 X-1.633 Y-2.491 E0.04157
G1 X-2.031 Y-2.177 E0.02845
G1 X-2.427 Y-1.73 E0.03352
G1 X-2.732 Y-1.188 E0.03491
G1 X-2.919 Y-.579 E0.03576
G1 X-2.965 Y-.28 E0.01698
G1 X-2.966 Y0.286 E0.03177
G1 X-2.893 Y0.714 E0.02437
G1 X-2.65 Y1.364 E0.03895
G1 X-2.368 Y1.811 E0.02966
G1 X-2.03 Y2.183 E0.02821
G1 X-1.586 Y2.523 E0.03139
G1 X-1.099 Y2.77 E0.03065
G1 X-.626 Y2.911 E0.0277
G1 X-.168 Y2.976 E0.02596
G0 F12000 X0.617 Y2.913
G0 X0.628 Y2.91
G1 F3600 E-1
G0 F12000 X0.452 Y2.104
G0 X0.064 Y0.418
;TYPE:SKIN
;BRIDGE
M107
G1 F3600 E1
G1 F1200 X0.291 Y0.289 E0.01465
G1 X0.414 Y0.056 E0.01479
G1 X0.402 Y-.165 E0.01242
G1 X0.328 Y-.282 E0.00777
G1 X0.005 Y-.421 E0.01974
G1 X-.271 Y-.32 E0.0165
G1 X-.368 Y-.194 E0.00892
G1 X-.413 Y0.069 E0.01498
G1 X-.362 Y0.192 E0.00747
G1 X-.155 Y0.398 E0.01639
G1 X0.064 Y0.418 E0.01234
G1 F3600 E-1
G0 F12000 X-.144 Y2.117
G1 F3600 E1
G1 F1200 X-.78 Y1.973 E0.0366
G1 X-1.135 Y1.792 E0.02237
G1 X-1.447 Y1.553 E0.02206
G1 X-1.688 Y1.29 E0.02002
G1 X-1.88 Y0.987 E0.02013
G1 X-2.065 Y0.482 E0.03019
G1 X-2.111 Y0.216 E0.01515
G1 X-2.111 Y-.298 E0.02885
G1 X-1.94 Y-.854 E0.03265
G1 X-1.727 Y-1.228 E0.02416
G1 X-1.444 Y-1.552 E0.02415
G1 X-1.175 Y-1.764 E0.01922
G1 X-.666 Y-2.015 E0.03185
G1 X-.341 Y-2.096 E0.0188
G1 X0.115 Y-2.125 E0.02565
G1 X0.585 Y-2.042 E0.02679
G1 X1.116 Y-1.806 E0.03261
G1 X1.575 Y-1.428 E0.03337
G1 X1.796 Y-1.125 E0.02105
G1 X2.037 Y-.597 E0.03258
G1 X2.104 Y-.282 E0.01808
G1 X2.122 Y0.089 E0.02085
G1 X2.067 Y0.48 E0.02216
G1 X1.942 Y0.853 E0.02208
G1 X1.686 Y1.281 E0.02799
G1 X1.416 Y1.576 E0.02245
G1 X0.907 Y1.916 E0.03436
G1 X0.45 Y2.069 E0.02705
G1 X-.144 Y2.117 E0.03345
G1 F3600 E-1
G0 F12000 X-1.18 Y1.474
G1 F3600 E1
G1 F1200 X-1.805 Y0.539 E0.06312
G1 X-1.867 Y0.446
G0 F12000 X-1.802 Y-.537
G1 F1200 X-.187 Y1.879 E0.16311
G0 F12000 X0.493 Y1.817
G1 F1200 X-.397 Y0.486 E0.08987
G0 F12000 X-.603 Y0.177
G1 F1200 X-1.493 Y-1.154 E0.08987
G0 F12000 X-1.051 Y-1.573
G1 F1200 X-.351 Y-.525 E0.07074
G0 F12000 X0.384 Y-.506
G1 F1200 X-.498 Y-1.824 E0.08901
G0 F12000 X0.184 Y-1.884
G1 F1200 X1.808 Y0.545 E0.164
G0 F12000 X1.495 Y1.157
G1 F1200 X0.614 Y-.161 E0.08898
G0 F12000 X0.348 Y0.521
G1 F1200 X1.04 Y1.556 E0.06988
G1 X1.102 Y1.649
G1 F3600 E-1
G0 F12000 X1.824 Y-.511
G1 F3600 E1
G1 F1200 X1.199 Y-1.445 E0.06308
G1 X1.137 Y-1.538
G0 F12000 X1.07 Y-1.448
G1 F3600 E-1
;MESH:NONMESH
G0 F600 X1.07 Y-1.448 Z1.2
G0 F12000 X0.031 Y-1.111
;TIME_ELAPSED:10.460505
;LAYER:3
M106 S255
;TYPE:FILL
;MESH:propeller_unwrapped (1).stl
G1 F3600 E1
G1 F9600 X-.211 Y-.903 E0.01791
G1 X-1.089 Y-.241 E0.06172
G1 F3600 E-1
G0 F12000 X0.071 Y3.14
G0 X0.069 Y3.54
;TYPE:WALL-INNER
G1 F3600 E1
G1 F4800 X0.619 Y3.485 E0.03102
G1 X1.134 Y3.349 E0.0299
G1 X1.724 Y3.086 E0.03626
G1 X2.325 Y2.661 E0.04131
G1 X2.625 Y2.375 E0.02326
G1 X2.947 Y1.958 E0.02957
G1 X3.209 Y1.492 E0.03001
G1 X3.409 Y0.95 E0.03243
G1 X3.502 Y0.492 E0.02623
G1 X3.539 Y0.045 E0.02517
G1 X3.505 Y-.488 E0.02998
G1 X3.409 Y-.948 E0.02637
G1 X3.227 Y-1.456 E0.03029
G1 X2.935 Y-1.982 E0.03377
G1 X2.619 Y-2.387 E0.02883
G1 X2.179 Y-2.786 E0.03334
G1 X1.635 Y-3.136 E0.03631
G1 X1.351 Y-3.27 E0.01763
G1 X0.686 Y-3.485 E0.03923
G1 X0.053 Y-3.539 E0.03566
G1 X-.393 Y-3.516 E0.02507
G1 X-.879 Y-3.427 E0.02773
G1 X-1.644 Y-3.133 E0.046
G1 X-2.075 Y-2.867 E0.02843
G1 X-2.455 Y-2.547 E0.02788
G1 X-2.82 Y-2.134 E0.03094
G1 X-3.126 Y-1.661 E0.03162
G1 X-3.367 Y-1.099 E0.03432
G1 X-3.513 Y-.446 E0.03756
G1 X-3.514 Y0.412 E0.04816
G1 X-3.331 Y1.195 E0.04513
G1 X-2.952 Y1.953 E0.04757
G1 X-2.633 Y2.366 E0.02929
G1 X-2.247 Y2.732 E0.02986
G1 X-1.745 Y3.084 E0.03441
G1 X-1.295 Y3.293 E0.02785
G1 X-.776 Y3.457 E0.03055
G1 X0.069 Y3.54 E0.04766
G1 F3600 E-1
G0 F12000 X0.083 Y3.965
;TYPE:WALL-OUTER
G1 F3600 E1
G1 F840 X0.695 Y3.905 E0.03451
G1 X1.276 Y3.751 E0.03374
G1 X1.935 Y3.457 E0.0405
G1 X2.596 Y2.99 E0.04542
G1 X2.941 Y2.66 E0.0268
G1 X3.303 Y2.193 E0.03316
G1 X3.596 Y1.67 E0.03365
G1 X3.818 Y1.067 E0.03607
G1 X3.924 Y0.552 E0.02951
G1 X3.965 Y0.049 E0.02833
G1 X3.927 Y-.546 E0.03346
G1 X3.818 Y-1.063 E0.02966
G1 X3.615 Y-1.632 E0.03391
G1 X3.29 Y-2.217 E0.03756
G1 X2.932 Y-2.677 E0.03272
G1 X2.439 Y-3.124 E0.03735
G1 X1.842 Y-3.508 E0.03984
G1 X1.507 Y-3.667 E0.02081
G1 X0.77 Y-3.905 E0.04347
G1 X0.059 Y-3.965 E0.04005
G1 X-.442 Y-3.939 E0.02816
G1 X-.98 Y-3.84 E0.0307
G1 X-1.368 Y-3.721 E0.02278
G1 X-1.843 Y-3.51 E0.02917
G1 X-2.325 Y-3.212 E0.03181
G1 X-2.752 Y-2.852 E0.03135
G1 X-3.16 Y-2.392 E0.03451
G1 X-3.502 Y-1.862 E0.0354
G1 X-3.773 Y-1.23 E0.0386
G1 X-3.935 Y-.505 E0.0417
G1 X-3.965 Y0.018 E0.0294
G1 X-3.935 Y0.475 E0.02571
G1 X-3.737 Y1.326 E0.04904
G1 X-3.571 Y1.721 E0.02405
G1 X-3.307 Y2.189 E0.03016
G1 X-2.949 Y2.651 E0.0328
G1 X-2.517 Y3.061 E0.03343
G1 X-1.958 Y3.454 E0.03835
G1 X-1.449 Y3.69 E0.03149
G1 X-.874 Y3.872 E0.03385
G1 X-.376 Y3.95 E0.02829
G1 X0.083 Y3.965 E0.02578
G0 F12000 X0.695 Y3.905
G0 X0.873 Y3.858
G1 F3600 E-1
G0 F12000 X0.664 Y3.062
G0 X-0.071 Y1.504
;TYPE:SKIN
;BRIDGE
M107
G1 F3600 E1
G1 F1200 X0.503 Y1.418 E0.03258
G1 X0.85 Y1.253 E0.02157
G1 X1.191 Y0.921 E0.02671
G1 X1.408 Y0.546 E0.02432
G1 X1.504 Y0.135 E0.02369
G1 X1.467 Y-.37 E0.02842
G1 X1.33 Y-.716 E0.02089
G1 X1.068 Y-1.063 E0.0244
G1 X0.639 Y-1.362 E0.02935
G1 X0.361 Y-1.467 E0.01668
G1 X-.154 Y-1.501 E0.02897
G1 X-.558 Y-1.4 E0.02337
G1 X-.874 Y-1.23 E0.02014
G1 X-1.153 Y-.978 E0.0211
G1 X-1.336 Y-.71 E0.01821
G1 X-1.456 Y-.382 E0.0196
G1 X-1.494 Y0.052 E0.02445
G1 X-1.412 Y0.512 E0.02623
G1 X-1.253 Y0.838 E0.02036
G1 X-.954 Y1.165 E0.02487
G1 X-.555 Y1.397 E0.0259
G1 X-0.071 Y1.504 E0.02782
G1 F3600 E-1
G0 F12000 X0.059 Y3.11
G1 F3600 E1
G1 F1200 X-.682 Y3.038 E0.04179
G1 X-1.146 Y2.89 E0.02734
G1 X-1.523 Y2.716 E0.0233
G1 X-1.977 Y2.397 E0.03114
G1 X-2.32 Y2.072 E0.02652
G1 X-2.588 Y1.723 E0.0247
G1 X-2.922 Y1.055 E0.04192
G1 X-3.087 Y0.35 E0.04064
G1 X-3.087 Y-.386 E0.04131
G1 X-2.957 Y-.966 E0.03336
G1 X-2.744 Y-1.457 E0.03004
G1 X-2.472 Y-1.879 E0.02818
G1 X-2.154 Y-2.238 E0.02692
G1 X-1.816 Y-2.52 E0.02471
G1 X-1.446 Y-2.749 E0.02442
G1 X-1.071 Y-2.917 E0.02306
G1 X-.331 Y-3.088 E0.04263
G1 X0.044 Y-3.11 E0.02108
G1 X0.595 Y-3.062 E0.03104
G1 X1.319 Y-2.83 E0.04267
G1 X1.922 Y-2.441 E0.04028
G1 X2.306 Y-2.09 E0.0292
G1 X2.571 Y-1.751 E0.02415
G1 X2.838 Y-1.27 E0.03088
G1 X2.994 Y-.834 E0.02599
G1 X3.08 Y-.425 E0.02346
G1 X3.11 Y0.042 E0.02627
G1 X2.996 Y0.824 E0.04435
G1 X2.815 Y1.317 E0.02948
G1 X2.587 Y1.72 E0.02599
G1 X2.311 Y2.081 E0.0255
G1 X2.052 Y2.329 E0.02013
G1 X1.512 Y2.707 E0.037
G1 X0.98 Y2.947 E0.03276
G1 X0.548 Y3.062 E0.02509
G1 X0.059 Y3.11 E0.02758
G1 F3600 E-1
G0 F12000 X-1.91 Y2.15
G1 F3600 E1
G1 F1200 X1.206 Y2.598 E0.17669
G1 X1.317 Y2.614
G0 F12000 X1.966 Y2.101
G1 F1200 X-2.465 Y1.465 E0.25125
G0 F12000 X-2.747 Y0.818
G1 F1200 X-1.394 Y1.012 E0.07672
G0 F12000 X-1.663 Y0.367
G1 F1200 X-2.863 Y0.195 E0.06804
G0 F12000 X-2.851 Y-.409
G1 F1200 X-1.695 Y-.243 E0.06555
G0 F12000 X-1.528 Y-.825
G1 F1200 X-2.699 Y-.994 E0.06641
G0 F12000 X-2.41 Y-1.558
G1 F1200 X-1.06 Y-1.364 E0.07655
G1 X-.949 Y-1.348
G1 F3600 E-1
G0 F12000 X-1.966 Y-2.101
G1 F3600 E1
G1 F1200 X2.474 Y-1.463 E0.25176
G0 F12000 X2.762 Y-.816
G1 F1200 X1.393 Y-1.012 E0.07762
G0 F12000 X1.687 Y-.364
G1 F1200 X2.87 Y-.194 E0.06708
G0 F12000 X2.829 Y0.406
G1 F1200 X1.708 Y0.245 E0.06356
G0 F12000 X1.506 Y0.822
G1 F1200 X2.694 Y0.993 E0.06737
G0 F12000 X2.419 Y1.559
G1 F1200 X1.055 Y1.364 E0.07733
G1 X0.944 Y1.349
G1 F3600 E-1
G0 F12000 X1.907 Y-2.151
G1 F3600 E1
G1 F1200 X-1.198 Y-2.597 E0.17606
G1 X-1.309 Y-2.613
G0 F12000 X-1.256 Y-2.49
G1 F3600 E-1
;MESH:NONMESH
G0 F600 X-1.256 Y-2.49 Z1.5
G0 F12000 X0.852 Y-1.954
;TIME_ELAPSED:16.589447
;LAYER:4
M106 S255
;TYPE:FILL
;MESH:propeller_unwrapped (1).stl
G1 F3600 E1
G1 F9600 X0.717 Y-1.806 E0.01124
G1 X-.552 Y-.903 E0.08742
G1 X-1.998 Y0.00 E0.09568
G1 X-2.135 Y0.2 E0.01361
G1 F3600 E-1
G0 F12000 X0.282 Y4.088
G0 X0.298 Y4.485
;TYPE:WALL-INNER
G1 F3600 E1
G1 F4800 X1.046 Y4.388 E0.04233
G1 X1.768 Y4.134 E0.04296
G1 X2.291 Y3.866 E0.03298
G1 X2.774 Y3.539 E0.03274
G1 X3.241 Y3.117 E0.03533
G1 X3.577 Y2.719 E0.02923
G1 X3.847 Y2.321 E0.02699
G1 X4.116 Y1.803 E0.03276
G1 X4.304 Y1.289 E0.03072
G1 X4.477 Y0.567 E0.04167
G1 X4.469 Y-.421 E0.05545
G1 X4.394 Y-.956 E0.03032
G1 X4.25 Y-1.467 E0.0298
G1 X4.009 Y-2.032 E0.03448
G1 X3.701 Y-2.546 E0.03363
G1 X3.262 Y-3.111 E0.04016
G1 X2.781 Y-3.534 E0.03595
G1 X2.077 Y-3.999 E0.04735
G1 X1.352 Y-4.29 E0.04385
G1 X0.774 Y-4.425 E0.03331
G1 X0.119 Y-4.496 E0.03698
G1 X-.78 Y-4.427 E0.05061
G1 X-1.423 Y-4.269 E0.03716
G1 X-1.961 Y-4.043 E0.03275
G1 X-2.378 Y-3.812 E0.02676
G1 X-2.962 Y-3.392 E0.04037
G1 X-3.442 Y-2.888 E0.03906
G1 X-3.763 Y-2.457 E0.03016
G1 X-4.098 Y-1.854 E0.03872
G1 X-4.29 Y-1.351 E0.03022
G1 X-4.421 Y-.81 E0.03124
G1 X-4.488 Y-.201 E0.03439
G1 X-4.485 Y0.299 E0.02806
G1 X-4.433 Y0.758 E0.02593
G1 X-4.318 Y1.259 E0.02885
G1 X-4.16 Y1.708 E0.02672
G1 X-3.926 Y2.193 E0.03022
G1 X-3.623 Y2.663 E0.03139
G1 X-3.291 Y3.06 E0.02905
G1 X-2.902 Y3.428 E0.03005
G1 X-2.368 Y3.821 E0.03721
G1 X-1.944 Y4.053 E0.02713
G1 X-1.079 Y4.363 E0.05157
G1 X-.399 Y4.488 E0.03881
G1 X0.298 Y4.485 E0.03912
G1 F3600 E-1
G0 F12000 X0.327 Y4.91
;TYPE:WALL-OUTER
G1 F3600 E1
G1 F840 X1.152 Y4.802 E0.0467
G1 X1.936 Y4.525 E0.04667
G1 X2.508 Y4.232 E0.03607
G1 X3.037 Y3.874 E0.03585
G1 X3.547 Y3.413 E0.03859
G1 X3.916 Y2.976 E0.0321
G1 X4.212 Y2.539 E0.02962
G1 X4.506 Y1.975 E0.0357
G1 X4.712 Y1.411 E0.0337
G1 X4.845 Y0.854 E0.03214
G1 X4.901 Y0.424 E0.02434
G1 X4.894 Y-.453 E0.04922
G1 X4.81 Y-1.044 E0.0335
G1 X4.651 Y-1.608 E0.03289
G1 X4.388 Y-2.226 E0.0377
G1 X4.053 Y-2.786 E0.03663
G1 X3.573 Y-3.403 E0.04388
G1 X3.039 Y-3.872 E0.03989
G1 X2.275 Y-4.377 E0.0514
G1 X1.48 Y-4.696 E0.04808
G1 X0.845 Y-4.845 E0.03661
G1 X0.137 Y-4.921 E0.03997
G1 X-.353 Y-4.91 E0.02751
G1 X-.858 Y-4.845 E0.02858
G1 X-1.557 Y-4.673 E0.0404
G1 X-2.146 Y-4.426 E0.03585
G1 X-2.606 Y-4.172 E0.02949
G1 X-3.243 Y-3.714 E0.04403
G1 X-3.768 Y-3.162 E0.04276
G1 X-4.121 Y-2.688 E0.03317
G1 X-4.484 Y-2.034 E0.04198
G1 X-4.696 Y-1.477 E0.03345
G1 X-4.841 Y-.884 E0.03426
G1 X-4.913 Y-.223 E0.03732
G1 X-4.91 Y0.325 E0.03076
G1 X-4.853 Y0.829 E0.02847
G1 X-4.727 Y1.378 E0.03161
G1 X-4.552 Y1.871 E0.02936
G1 X-4.297 Y2.401 E0.03301
G1 X-3.966 Y2.915 E0.03431
G1 X-3.601 Y3.352 E0.03196
G1 X-3.175 Y3.755 E0.03291
G1 X-2.597 Y4.18 E0.04027
G1 X-2.128 Y4.438 E0.03004
G1 X-1.663 Y4.628 E0.02819
G1 X-1.18 Y4.776 E0.02835
G1 X-.437 Y4.913 E0.0424
G1 X0.327 Y4.91 E0.04288
G0 F12000 X1.12 Y4.807
G1 F3600 E-1
G0 F12000 X0.915 Y3.992
G0 X-.134 Y2.525
;TYPE:SKIN
;BRIDGE
M107
G1 F3600 E1
G1 F1200 X0.505 Y2.476 E0.03597
G1 X1.099 Y2.277 E0.03516
G1 X1.691 Y1.88 E0.04001
G1 X2.012 Y1.532 E0.02657
G1 X2.31 Y1.028 E0.03286
